X: 10
M:4/4
L:1/8
K:D
f/2g/2|afdf abaf|geaf e/2e/2e e/2f/2g|afdf abaf|geaf d/2d/2d df/2g/2|
afdf abaf|geaf e/2e/2e eg|fdec dBAF|GBAF D/2D/2D D||

